!!!!SEGMENT: pl-sa--481-a-viii-121--034_anonim--keyboard-piece.krn
!!!cenid: 18xx:405
!!!COM: Anonim
!!!COM-rismID: pe30004985
!!!CDT:
!!!CNT:
!!!OTL: [Keyboard piece]
!!!PDT:
!!!AGN: Secular
!!!SMS-siglum: PL-SA
!!!SMS-shelfmark: 481/A VIII 121
!!!SMS-shelfwork: 034 W
!!!SMS-variant:
!!!SMS-altvar:
!!!NIFC-rismSourceID: 1001070705
!!!NIFC-rismChildID: 1001070705
!!!NIFC-islandoraID: none
!!!URL-pdf-islandora:
!!!URL-scan: https://bc.bdsandomierz.pl/dlibra/publication/1212/edition/1171/content @EN{Scan in the Sandomierz Diocese Digital Library} @PL{Skany w portalu Cyfrowa Biblioteka Diecezjalna w Sandomierzu}
!!!IIIF:
!!!ONB-nifc: Str. 23, s. 3-5, kontynuacja str. 24, s. 4
!!!AIN: 1 piano
!!!key:
**kern	**kern
*part1	*part1
*staff2	*staff1
*Ipiano	*Iempty
*I"Piano	*
*I'P-no	*
*clefF4	*clefG2
*k[b-]	*k[b-]
*F:	*F:
*M3/4	*M3/4
*>[A,A,B,B,C,C,D,D]	*>[A,A,B,B,C,C,D,D]
=1	=1
*>A	*>A
*	*^
*2\right	*	*
2F\	(4ff 4cc/	4a\
.	4cc 4a/	2ryy
4r	4cc 4a/)	.
*	*v	*v
=8	=8
2.r	(>4cc 4a/
.	4dd 4b-/
.	4cc 4a/)
!LO:LB:g=original	!LO:LB:g=original
=9	=9
*	*^
2F\	(4ff 4cc/	4a\
.	4a 4f/	2ryy
4r	4a 4f/)	.
*	*v	*v
=10	=10
2.r	(>4a 4f/
.	4b- 4g/
.	4a 4f/)
=11	=11
*	*Xtuplet
2F\	12A/L
.	12c/
.	12f/J
.	12A/L
.	12c/
.	12f/J
4r	12A/L
.	12c/
.	12f/J
=12	=12
2C/	12c/L
.	12e/
.	12g/J
.	12c/L
.	12e/
.	12g/J
4r	12c/L
.	12e/
.	12g/J
=13	=13
!	!LO:TX:a:t=P:problem=zapisana "6" lub bemol na 3 linii
4F\	12c/L
.	12f/
.	12a/J
4E\	12c/L
.	12e/
.	12g/J
4F\	12c/L
.	12f/
.	12a/J
=14	=14
2.C/	2a 2f 2c/
.	4g 4e 4c/
=15:|!|:	=15:|!|:
*>B	*>B
*Xtuplet	*2\right
12E\L	2gg\
12G\	.
12c\J	.
*rep	*
12E\L	.
12G\	.
12c\J	.
*Xrep	*
*rep	*
12E\L	4b-/
12G\	.
12c\J	.
*Xrep	*
=16	=16
12F\L	(4a/
12A\	.
12c\J	.
*rep	*
12F\L	4cc/)
12A\	.
12c\J	.
*Xrep	*
*rep	*
12F\L	4ff\
12A\	.
12c\J	.
*Xrep	*
=17	=17
12E\L	2gg\
12G\	.
12c\J	.
*rep	*
12E\L	.
12G\	.
12c\J	.
*Xrep	*
*rep	*
12E\L	4b-/
12G\	.
12c\J	.
*Xrep	*
=18	=18
12F\L	12a\L
12A\	12cc\
12c\J	12ff\J
*rep	*
*rep	*
12F\L	2ryy
12A\	.
12c\J	.
*Xrep	*
*rep	*
12F\L	.
12A\	.
12c\J	.
*Xrep	*
=19	=19
4F\	12a/L
.	12cc/
.	12ff/J
4F\	12a/L
.	12cc/
.	12ff/J
4F\	12a/L
.	12cc/
.	12ff/J
!LO:LB:g=original	!LO:LB:g=original
=20	=20
4B-\	12dd\L
.	12gg\
.	12bb-\J
4B-\	12dd\L
.	12gg\
.	12bb-\J
4B-\	12dd\L
.	12gg\
.	12bb-\J
=21	=21
2c\	12cc\L
.	12ff\
.	12aa\J
.	12cc\L
.	12ff\
.	12aa\J
4C/	12b-\L
.	12ee\
.	12gg\J
=22	=22
2.F\	2.ff 2.a\
=23:|!|:;;	=23:|!|:;;
*>C	*>C
*k[b-]	*k[b-]
*M3/4	*M3/4
!LO:TX:a:t=1.	!LO:TX:b:t=Trio
2.r	(>4a 4f'>/
.	4a 4f'>/
.	4a 4f'>/)
=24	=24
4r	(>4a 4f/
4r	4g 4e/)
4F\	4a 4f/|
=25	=25
2E\	(>4cc 4a/
.	4b- 4g/
4F\	4a 4f/)
=26	=26
2c\	2g 2e/
4r	4r
=27	=27
!LO:TX:a:t=1.	!
2.r	4b- 4g/
.	4b- 4g/
.	4b- 4g/
=28	=28
4r	4b- 4g/
4E\	4dd 4b-\
4F\	4cc 4a\
=29	=29
.	16qqcc/
4B-\	4b- 4g/
4c\	4a 4f/
4C/	4g 4e/
=30	=30
4F\	2f/
4FF/	.
!	!LO:TX:b:t=vi
4r	4r
!LO:PB:g=original	!LO:PB:g=original
=31:|!|:	=31:|!|:
*>D	*>D
*k[b-]	*k[b-]
!	!LO:TX:a:t=de
2C/	(>4gg 4ee/
.	4ee 4cc/
4r	4ff 4dd/)
=32	=32
2c\	(>4gg 4ee/
.	4ee 4cc/
4r	4ff 4dd/)
=33	=33
2C/	4gg 4ee/
.	4gg 4ee/
4r	4aa 4ff/
=34	=34
2.C/	2.bb- 2.gg 2.ee\
=35	=35
4F\	4aa 4ff/
4F\	4aa 4ff/
4C#X/	4aa 4ff/
=36	=36
4D/	4aa 4ff/
4D/	4aa 4ff/
4AA/	4aa 4ff/
=37	=37
4BB-/	4gg 4ff\
!LO:SIC:v:s=4BBn	!
4BB#/	4gg 4ff\
4C/	4gg 4ee\
=38	=38
4FF/	4ff/
4r	4r
4r	4r
=:|!;;	=:|!;;
*-	*-
!!!system-decoration: {s1,s2}
!!!RDF**kern: > = above
!!!RDF**kern: | = vertical stroke
!!!ENC: Marta Lawrence
!!!END: 2020-11-22
!!!ENC: Anastazja Marusiak
!!!END: 2020-06-14
!!!YEC: Copyright 2022 Narodowy Instytut Fryderyka Chopina (https://polishscores.org)
!!!YEM: License CC-BY-4.0 (https://creativecommons.org/licenses/by/4.0)
